X: 8645
T: Croppies' March, The
R: polka
M: 2/4
K: Dmajor
|:AB AF|AB de|f/g/a ef|dB Bd|
AB AF|AB de|1 f/g/a ef|dc dB:|2 ba ef|d2 d2||
f>a .a/.a/.a|g>b .b/.b/.b|af ef|
[1 dB B2|f>a .a/.a/.a|g>b bc'|d'c' ba|b2 b2:|
[2 dB Bd|AB AF|AB de|ba ef|d2 d2||

